X: 37604
T: Smokey Lum, The
R: reel
M: 4/4
K: Amajor
BF DB, =G,B, DF|EA cB AE dc|B3/2F/ F/F/F Bd fd|ca ga ec Ac|
d2 fd cA EA|=GA Bd cA dc|B3/2F/ F/F/F DF B,F|EA dc B2 dc|
BF DB, =G,B, DF|EA cB AE dc|B3/2F/ F/F/F Bd fd|ca ga ec Ac|
d2 fd cA EA|=GA Bd cA dc|B3/2F/ F/F/F DF B,F|EA dc B2 de|
fa ed cA EA|=GA Bd cA de|fd (3fga ea ca|ba fd cA dc|
B2 FB c2 Ac|dB fd cA dc|BF DF EA cf|ed cA Bc de|
fa ed cA EA|=GA Bd cA de|fd (3fga ea ca|ba fd cA dc|
B2 FB c2 Ac|dB fd cA dc|BF DF EA cf|ed cA B2 dc||

